teeny/solid/stamp.svg

<svg width="15" height="15" viewBox="0 0 15 15" fill="none" xmlns="http://www.w3.org/2000/svg">
<path d="M4 3.5C4 1.567 5.567 0 7.5 0C9.433 0 11 1.567 11 3.5C11 4.8962 10.1825 6.10145 9 6.66318V9H12.5C13.8807 9 15 10.1193 15 11.5V13H0V11.5C0 10.1193 1.11929 9 2.5 9H6V6.66318C4.81753 6.10145 4 4.8962 4 3.5Z" fill="black"/>
<path d="M0 14V15H15V14H0Z" fill="black"/>
</svg>

<svg viewBox="0 0 15 15" xmlns="http://www.w3.org/2000/svg"><g><path d="M4 3.5C4 1.567 5.56 0 7.5 0 9.43 0 11 1.567 11 3.5c0 1.39-.82 2.6-2 3.16v2.33h3.5c1.38 0 2.5 1.11 2.5 2.5v1.5H0v-1.5c0-1.39 1.11-2.5 2.5-2.5H6V6.65c-1.19-.57-2-1.77-2-3.17Z"/><path d="M0 14v1h15v-1H0Z"/></g></svg>
